public/CanadaCountry.svg

<svg width="60" height="61" viewBox="0 0 60 61" fill="none" xmlns="http://www.w3.org/2000/svg">
<g clip-path="url(#clip0_38_3865)">
<path d="M30 56.5C44.3594 56.5 56 44.8594 56 30.5C56 16.1406 44.3594 4.5 30 4.5C15.6406 4.5 4 16.1406 4 30.5C4 44.8594 15.6406 56.5 30 56.5Z" fill="white"/>
<g clip-path="url(#clip1_38_3865)">
<path d="M56 31C56 37.9449 53.2955 44.474 48.3848 49.3848C43.474 54.2955 36.9449 57 30 57C23.0551 57 16.526 54.2955 11.6152 49.3848C6.70445 44.474 4 37.9449 4 31C4 24.0551 6.70445 17.526 11.6152 12.6152C16.526 7.70445 23.0551 5 30 5C36.9449 5 43.474 7.70445 48.3848 12.6152C53.2955 17.526 56 24.0551 56 31Z" fill="#EFEFEF"/>
<path d="M18.854 7.53906V54.4609C16.201 53.2019 13.7544 51.4847 11.6157 49.35C6.70484 44.4483 4 37.9318 4 31C4 24.0682 6.70484 17.5517 11.6157 12.65C13.7544 10.5153 16.201 8.79808 18.854 7.53906ZM48.3843 12.65C46.2456 10.5153 43.799 8.79808 41.146 7.53906V54.4609C43.799 53.2019 46.2456 51.4847 48.3843 49.35C53.2952 44.4483 56 37.9318 56 31C56 24.0682 53.2952 17.5517 48.3843 12.65ZM37.5396 31.1218L35.866 30.4773V28.6879C35.866 28.5735 35.8067 28.4672 35.7092 28.407C35.6116 28.3466 35.4899 28.3412 35.3874 28.3921L32.5576 29.7984L33.8944 27.0021C33.9434 26.8997 33.9363 26.7795 33.8756 26.6834C33.815 26.5875 33.7093 26.5293 33.5956 26.5293H32.0235L30.2631 23.8555C30.2018 23.7625 30.0979 23.7065 29.9864 23.7065H29.9853C29.8734 23.7068 29.7694 23.7637 29.7085 23.8573L27.9748 26.5293H26.4041C26.2905 26.5293 26.1848 26.5875 26.1242 26.6834C26.0635 26.7794 26.0564 26.8997 26.1054 27.0021L27.4422 29.7984L24.6124 28.3921C24.51 28.3412 24.3881 28.3466 24.2906 28.407C24.193 28.4672 24.1338 28.5735 24.1338 28.6879V30.4773L22.4602 31.1218C22.3384 31.1688 22.2555 31.2828 22.2488 31.413C22.2419 31.5433 22.3126 31.6652 22.4289 31.7245L25.9202 33.5038L25.0919 34.9785C25.0345 35.0809 25.0356 35.2059 25.095 35.3071C25.1545 35.4083 25.2631 35.4705 25.3807 35.4705H28.7259V37.9628C28.7259 38.1453 28.8741 38.2933 29.057 38.2933H30.9426C31.1254 38.2933 31.2736 38.1453 31.2736 37.9628V35.4705H34.5651C34.6813 35.4705 34.7889 35.4097 34.8487 35.3104C34.9087 35.2111 34.912 35.0877 34.8576 34.9852L34.0724 33.5074L37.5707 31.7243C37.687 31.6651 37.7575 31.5432 37.7508 31.4128C37.7443 31.2828 37.6614 31.1688 37.5396 31.1218Z" fill="#D90028"/>
<path opacity="0.13" d="M56 31.0049C56 37.9483 53.2959 44.4758 48.3863 49.3857C43.4767 54.2957 36.9497 57 30.0067 57C24.7088 57 19.6535 55.4255 15.375 52.4983C19.7661 54.4104 24.6095 55.0857 29.4738 54.4126C36.451 53.4472 42.6338 49.8216 46.8847 44.2055C51.1345 38.5883 52.9439 31.6526 51.9785 24.6761C51.1334 18.5778 48.2594 13.0864 43.7988 8.96094C45.4416 9.99258 46.9807 11.2184 48.3863 12.6241C53.2959 17.534 56 24.0615 56 31.0049Z" fill="#160204"/>
<path opacity="0.25" d="M42.3906 8.11362C37.7573 6.77763 32.8314 6.7136 28.0478 7.97781C21.0753 9.8217 15.2392 14.2691 11.6121 20.5008C7.98607 26.7335 7.00419 34.0042 8.84867 40.9745C9.97413 45.2297 12.0704 49.061 14.952 52.2266C13.7769 51.3896 12.6635 50.4478 11.622 49.4066C6.70708 44.4933 4 37.9613 4 31.0131C4 24.0649 6.70708 17.5329 11.622 12.6195C16.537 7.7062 23.0711 5 30.0216 5C34.4119 5 38.6354 6.07983 42.3906 8.11362Z" fill="white"/>
</g>
</g>
<rect x="2" y="2.5" width="56" height="56" rx="28" stroke="white" stroke-width="4"/>
<defs>
<clipPath id="clip0_38_3865">
<rect x="4" y="4.5" width="52" height="52" rx="26" fill="white"/>
</clipPath>
<clipPath id="clip1_38_3865">
<rect width="52" height="52" fill="white" transform="translate(4 5)"/>
</clipPath>
</defs>
</svg>

<svg xmlns="http://www.w3.org/2000/svg" width="60" height="61" fill="none"><g clip-path="url(#a)"><path fill="#fff" d="M30 56.5c14.36 0 26-11.64 26-26s-11.64-26-26-26-26 11.64-26 26 11.64 26 26 26"/><g clip-path="url(#b)"><path fill="#EFEFEF" d="M56 31c0 6.945-2.705 13.474-7.615 18.385C43.474 54.295 36.945 57 30 57s-13.474-2.705-18.385-7.615C6.705 44.474 4 37.945 4 31s2.704-13.474 7.615-18.385C16.526 7.705 23.055 5 30 5s13.474 2.704 18.385 7.615C53.295 17.526 56 24.055 56 31"/><path fill="#D90028" d="M18.854 7.54v46.92a26 26 0 0 1-7.238-5.11C6.705 44.448 4 37.932 4 31s2.705-13.448 7.616-18.35a26 26 0 0 1 7.238-5.11m29.53 5.11a26 26 0 0 0-7.238-5.11v46.92a26 26 0 0 0 7.238-5.11C53.295 44.448 56 37.932 56 31s-2.705-13.448-7.616-18.35M37.54 31.122l-1.674-.645v-1.79a.33.33 0 0 0-.479-.295l-2.83 1.406 1.337-2.796a.33.33 0 0 0-.298-.473h-1.572l-1.76-2.674a.331.331 0 0 0-.555.002l-1.734 2.672h-1.57a.33.33 0 0 0-.3.473l1.337 2.796-2.83-1.406a.33.33 0 0 0-.478.296v1.79l-1.674.644a.33.33 0 0 0-.031.602l3.491 1.78-.828 1.474a.33.33 0 0 0 .289.492h3.345v2.493c0 .182.148.33.331.33h1.886a.33.33 0 0 0 .33-.33V35.47h3.292a.33.33 0 0 0 .293-.486l-.786-1.478 3.499-1.783a.33.33 0 0 0-.031-.602"/><path fill="#160204" d="M56 31.005c0 6.943-2.704 13.47-7.614 18.38S36.95 57 30.006 57c-5.297 0-10.352-1.575-14.631-4.502 4.391 1.912 9.235 2.588 14.099 1.915 6.977-.966 13.16-4.591 17.41-10.207 4.25-5.618 6.06-12.553 5.094-19.53-.845-6.098-3.719-11.59-8.18-15.715a26.2 26.2 0 0 1 4.588 3.663C53.296 17.534 56 24.061 56 31.004" opacity=".13"/><path fill="#fff" d="M42.39 8.114c-4.633-1.336-9.559-1.4-14.342-.136-6.973 1.844-12.809 6.291-16.436 12.523-3.626 6.232-4.608 13.503-2.763 20.473a26.86 26.86 0 0 0 6.103 11.253 26 26 0 0 1-3.33-2.82C6.707 44.493 4 37.96 4 31.013s2.707-13.48 7.622-18.393S23.072 5 30.022 5c4.39 0 8.613 1.08 12.369 3.114" opacity=".25"/></g></g><rect width="56" height="56" x="2" y="2.5" stroke="#fff" stroke-width="4" rx="28"/><defs><clipPath id="a"><rect width="52" height="52" x="4" y="4.5" fill="#fff" rx="26"/></clipPath><clipPath id="b"><path fill="#fff" d="M4 5h52v52H4z"/></clipPath></defs></svg>
